;FLAVOR:Marlin
;TIME:9365
;Filament used: 8.81681m
;Layer height: 0.35
;MINX:22.7
;MINY:64.95
;MINZ:0.12
;MAXX:194.3
;MAXY:155.05
;MAXZ:7.12
;Generated with Cura_SteamEngine 5.2.1
M140 S70
M105
M190 S70
M104 S210
M105
M109 S210
M82 ;absolute extrusion mode
M201 X500.00 Y500.00 Z100.00 E5000.00 ;Setup machine max acceleration
M203 X500.00 Y500.00 Z10.00 E50.00 ;Setup machine max feedrate
M204 P500.00 R1000.00 T500.00 ;Setup Print/Retract/Travel acceleration
M205 X8.00 Y8.00 Z0.40 E5.00 ;Setup Jerk
M220 S100 ;Reset Feedrate
M221 S100 ;Reset Flowrate

G28 ;Home
G29 ; Auto bed leveling
M420 S1 Z2 ;Enable ABL using saved Mesh and Fade Height

G92 E0 ;Reset Extruder
M413 S1; Enable power-loss recovery
M412 S0; Filament runout sensor disabled;
G1 Z2.0 F3000 ;Move Z Axis up
G1 X10.1 Y20 Z0.28 F5000.0 ;Move to start position
G1 X10.1 Y200.0 Z0.28 F1500.0 E15 ;Draw the first line
G1 X10.4 Y200.0 Z0.28 F5000.0 ;Move to side a little
G1 X10.4 Y20 Z0.28 F1500.0 E30 ;Draw the second line
G92 E0 ;Reset Extruder
G1 Z2.0 F3000 ;Move Z Axis up
G92 E0
G92 E0
G1 F2700 E-5
;LAYER_COUNT:21
;LAYER:0
M107
G0 F6000 X88.8 Y82.658 Z0.12
;TYPE:SKIRT
G1 F2700 E0
G1 F1200 X88.8 Y83.42 E0.01521
G1 X93.986 Y83.42 E0.1187
G1 X94.536 Y83.46 E0.1297
G1 X95.074 Y83.579 E0.1407
G1 X95.589 Y83.775 E0.1517
G1 X96.07 Y84.043 E0.16268
G1 X96.508 Y84.377 E0.17368
G1 X96.892 Y84.772 E0.18467
G1 X97.216 Y85.218 E0.19567
G1 X97.471 Y85.706 E0.20666
G1 X97.654 Y86.226 E0.21766
G1 X97.759 Y86.767 E0.22866
G1 X97.786 Y87.22 E0.23771
G1 X97.786 Y106.22 E0.61688
G1 X97.746 Y106.77 E0.62788
G1 X97.627 Y107.308 E0.63888
G1 X97.431 Y107.823 E0.64988
G1 X97.163 Y108.304 E0.66086
G1 X96.829 Y108.742 E0.67186
G1 X96.434 Y109.126 E0.68285
G1 X95.988 Y109.45 E0.69385
G1 X95.5 Y109.705 E0.70484
G1 X94.98 Y109.888 E0.71584
G1 X94.439 Y109.993 E0.72684
G1 X93.986 Y110.02 E0.73589
G1 X88.8 Y110.02 E0.83939
G1 X88.8 Y129.95 E1.23711
G1 X102.7 Y129.95 E1.5145
G1 X102.7 Y100.75 E2.09722
G1 X102.74 Y100.2 E2.10822
G1 X102.859 Y99.662 E2.11922
G1 X103.055 Y99.147 E2.13022
G1 X103.323 Y98.666 E2.1412
G1 X103.657 Y98.228 E2.1522
G1 X104.052 Y97.844 E2.16319
G1 X104.498 Y97.52 E2.17419
G1 X104.986 Y97.265 E2.18518
G1 X105.506 Y97.082 E2.19618
G1 X106.047 Y96.977 E2.20718
G1 X106.5 Y96.95 E2.21623
G1 X110.7 Y96.95 E2.30005
G1 X110.7 Y83.05 E2.57744
G1 X106.5 Y83.05 E2.66125
G1 X105.95 Y83.01 E2.67226
G1 X105.412 Y82.891 E2.68326
G1 X104.897 Y82.695 E2.69425
G1 X104.506 Y82.477 E2.70319
G1 X104.014 Y82.735 E2.71427
G1 X103.494 Y82.918 E2.72527
G1 X102.953 Y83.023 E2.73627
G1 X102.5 Y83.05 E2.74533
G1 X98.5 Y83.05 E2.82515
G1 X97.95 Y83.01 E2.83616
G1 X97.412 Y82.891 E2.84715
G1 X96.897 Y82.695 E2.85815
G1 X96.506 Y82.477 E2.86708
G1 X96.014 Y82.735 E2.87817
G1 X95.494 Y82.918 E2.88917
G1 X94.953 Y83.023 E2.90017
G1 X94.5 Y83.05 E2.90922
G1 X90.5 Y83.05 E2.98905
G1 X89.95 Y83.01 E3.00005
G1 X89.412 Y82.891 E3.01105
G1 X88.8 Y82.658 E3.02412
G0 F6000 X88.99 Y82.296
G1 F1200 X88.491 Y81.999 E3.03571
G1 X88.4 Y82.058 E3.03787
G1 X88.4 Y83.82 E3.07303
G1 X93.986 Y83.82 E3.18451
G1 X94.506 Y83.86 E3.19491
G1 X95.013 Y83.979 E3.20531
G1 X95.496 Y84.174 E3.2157
G1 X95.944 Y84.44 E3.2261
G1 X96.346 Y84.772 E3.2365
G1 X96.692 Y85.162 E3.24691
G1 X96.975 Y85.6 E3.25731
G1 X97.188 Y86.075 E3.2677
G1 X97.325 Y86.578 E3.27811
G1 X97.386 Y87.22 E3.29098
G1 X97.386 Y106.22 E3.67014
G1 X97.346 Y106.74 E3.68055
G1 X97.227 Y107.247 E3.69094
G1 X97.032 Y107.73 E3.70134
G1 X96.766 Y108.178 E3.71173
G1 X96.434 Y108.58 E3.72214
G1 X96.044 Y108.926 E3.73254
G1 X95.606 Y109.209 E3.74295
G1 X95.131 Y109.422 E3.75334
G1 X94.628 Y109.559 E3.76374
G1 X93.986 Y109.62 E3.77661
G1 X88.4 Y109.62 E3.88809
G1 X88.4 Y130.35 E4.30178
G1 X103.1 Y130.35 E4.59513
G1 X103.1 Y100.75 E5.18583
G1 X103.14 Y100.23 E5.19624
G1 X103.259 Y99.723 E5.20663
G1 X103.454 Y99.24 E5.21703
G1 X103.72 Y98.792 E5.22742
G1 X104.052 Y98.39 E5.23783
G1 X104.442 Y98.044 E5.24823
G1 X104.88 Y97.761 E5.25864
G1 X105.355 Y97.548 E5.26903
G1 X105.858 Y97.411 E5.27943
G1 X106.5 Y97.35 E5.2923
G1 X111.1 Y97.35 E5.3841
G1 X111.1 Y82.593 E5.67859
G1 X110.5 Y82.65 E5.69062
G1 X106.5 Y82.65 E5.77044
G1 X105.98 Y82.61 E5.78085
G1 X105.473 Y82.491 E5.79124
G1 X104.99 Y82.296 E5.80164
G1 X104.491 Y81.999 E5.81323
G1 X104.12 Y82.239 E5.82204
G1 X103.645 Y82.452 E5.83243
G1 X103.142 Y82.589 E5.84284
G1 X102.5 Y82.65 E5.8557
G1 X98.5 Y82.65 E5.93553
G1 X97.98 Y82.61 E5.94594
G1 X97.473 Y82.491 E5.95633
G1 X96.99 Y82.296 E5.96672
G1 X96.491 Y81.999 E5.97831
G1 X96.12 Y82.239 E5.98713
G1 X95.645 Y82.452 E5.99752
G1 X95.142 Y82.589 E6.00792
G1 X94.5 Y82.65 E6.02079
G1 X90.5 Y82.65 E6.10062
G1 X89.98 Y82.61 E6.11102
G1 X89.473 Y82.491 E6.12142
G1 X88.99 Y82.296 E6.13181
G0 F6000 X89.088 Y81.897
G1 F1200 X88.676 Y81.632 E6.14159
G1 X88.504 Y81.477 E6.14621
G1 X88.171 Y81.742 E6.1547
G1 X88 Y81.837 E6.1586
G1 X88 Y84.22 E6.20616
G1 X93.986 Y84.22 E6.32562
G1 X94.474 Y84.26 E6.33539
G1 X94.949 Y84.379 E6.34516
G1 X95.398 Y84.573 E6.35492
G1 X95.81 Y84.838 E6.3647
G1 X96.173 Y85.166 E6.37446
G1 X96.478 Y85.549 E6.38423
G1 X96.716 Y85.977 E6.394
G1 X96.882 Y86.437 E6.40376
G1 X96.971 Y86.918 E6.41352
G1 X96.986 Y87.22 E6.41956
G1 X96.986 Y106.22 E6.79872
G1 X96.946 Y106.708 E6.8085
G1 X96.827 Y107.183 E6.81827
G1 X96.633 Y107.632 E6.82803
G1 X96.368 Y108.044 E6.8378
G1 X96.04 Y108.407 E6.84757
G1 X95.657 Y108.712 E6.85734
G1 X95.229 Y108.95 E6.86711
G1 X94.769 Y109.116 E6.87687
G1 X94.288 Y109.205 E6.88663
G1 X93.986 Y109.22 E6.89267
G1 X88 Y109.22 E7.01212
G1 X88 Y130.75 E7.44178
G1 X103.5 Y130.75 E7.7511
G1 X103.5 Y100.75 E8.34978
G1 X103.54 Y100.262 E8.35955
G1 X103.659 Y99.787 E8.36932
G1 X103.853 Y99.338 E8.37908
G1 X104.118 Y98.926 E8.38886
G1 X104.446 Y98.563 E8.39862
G1 X104.829 Y98.258 E8.40839
G1 X105.257 Y98.02 E8.41817
G1 X105.717 Y97.854 E8.42793
G1 X106.198 Y97.765 E8.43769
G1 X106.5 Y97.75 E8.44372
G1 X111.5 Y97.75 E8.5435
G1 X111.5 Y82.068 E8.85645
G1 X111.283 Y82.146 E8.86106
G1 X110.802 Y82.235 E8.87082
G1 X110.5 Y82.25 E8.87685
G1 X106.5 Y82.25 E8.95668
G1 X106.012 Y82.21 E8.96645
G1 X105.537 Y82.091 E8.97622
G1 X105.088 Y81.897 E8.98598
G1 X104.676 Y81.632 E8.99576
G1 X104.504 Y81.477 E9.00038
G1 X104.171 Y81.742 E9.00887
G1 X103.743 Y81.98 E9.01864
G1 X103.283 Y82.146 E9.0284
G1 X102.802 Y82.235 E9.03816
G1 X102.5 Y82.25 E9.0442
G1 X98.5 Y82.25 E9.12402
G1 X98.012 Y82.21 E9.13379
G1 X97.537 Y82.091 E9.14356
G1 X97.088 Y81.897 E9.15333
G1 X96.676 Y81.632 E9.1631
G1 X96.504 Y81.477 E9.16772
G1 X96.171 Y81.742 E9.17621
G1 X95.743 Y81.98 E9.18599
G1 X95.283 Y82.146 E9.19575
G1 X94.802 Y82.235 E9.20551
G1 X94.5 Y82.25 E9.21154
G1 X90.5 Y82.25 E9.29137
G1 X90.012 Y82.21 E9.30114
G1 X89.537 Y82.091 E9.31091
G1 X89.088 Y81.897 E9.32067
G0 F6000 X89.194 Y81.498
G1 F1200 X88.821 Y81.235 E9.32978
G1 X88.499 Y80.91 E9.33891
G1 X88.162 Y81.25 E9.34846
G1 X87.787 Y81.509 E9.35756
G1 X87.6 Y81.595 E9.36167
G1 X87.6 Y84.664 E9.42291
G1 X88.13 Y84.62 E9.43352
G1 X93.986 Y84.62 E9.55039
G1 X94.44 Y84.66 E9.55948
G1 X94.88 Y84.778 E9.56857
G1 X95.292 Y84.972 E9.57766
G1 X95.665 Y85.235 E9.58677
G1 X95.986 Y85.558 E9.59586
G1 X96.245 Y85.933 E9.60495
G1 X96.435 Y86.347 E9.61404
G1 X96.55 Y86.788 E9.62314
G1 X96.586 Y87.22 E9.63179
G1 X96.586 Y106.22 E10.01095
G1 X96.546 Y106.674 E10.02005
G1 X96.428 Y107.114 E10.02914
G1 X96.234 Y107.526 E10.03823
G1 X95.971 Y107.899 E10.04733
G1 X95.648 Y108.22 E10.05642
G1 X95.273 Y108.479 E10.06552
G1 X94.859 Y108.669 E10.07461
G1 X94.418 Y108.784 E10.0837
G1 X93.986 Y108.82 E10.09235
G1 X88.13 Y108.82 E10.20922
G1 X87.6 Y108.773 E10.21983
G1 X87.6 Y131.15 E10.66639
G1 X103.9 Y131.15 E10.99168
G1 X103.9 Y100.75 E11.59834
G1 X103.94 Y100.296 E11.60744
G1 X104.058 Y99.856 E11.61653
G1 X104.252 Y99.444 E11.62561
G1 X104.515 Y99.071 E11.63472
G1 X104.838 Y98.75 E11.64381
G1 X105.213 Y98.491 E11.6529
G1 X105.627 Y98.301 E11.66199
G1 X106.068 Y98.186 E11.67109
G1 X106.5 Y98.15 E11.67974
G1 X111.9 Y98.15 E11.7875
G1 X111.9 Y81.457 E12.12063
G1 X111.373 Y81.699 E12.1322
G1 X110.932 Y81.814 E12.1413
G1 X110.5 Y81.85 E12.14995
G1 X106.5 Y81.85 E12.22977
G1 X106.046 Y81.81 E12.23887
G1 X105.606 Y81.692 E12.24796
G1 X105.194 Y81.498 E12.25705
G1 X104.821 Y81.235 E12.26615
G1 X104.499 Y80.91 E12.27528
G1 X104.162 Y81.25 E12.28484
G1 X103.787 Y81.509 E12.29393
G1 X103.373 Y81.699 E12.30302
G1 X102.932 Y81.814 E12.31212
G1 X102.5 Y81.85 E12.32077
G1 X98.5 Y81.85 E12.40059
G1 X98.046 Y81.81 E12.40969
G1 X97.606 Y81.692 E12.41878
G1 X97.194 Y81.498 E12.42787
G1 X96.821 Y81.235 E12.43698
G1 X96.499 Y80.91 E12.44611
G1 X96.162 Y81.25 E12.45566
G1 X95.787 Y81.509 E12.46475
G1 X95.373 Y81.699 E12.47384
G1 X94.932 Y81.814 E12.48294
G1 X94.5 Y81.85 E12.49159
G1 X90.5 Y81.85 E12.57141
G1 X90.046 Y81.81 E12.58051
G1 X89.606 Y81.692 E12.5896
G1 X89.194 Y81.498 E12.59869
G0 F6000 X89.309 Y81.099
G1 F1200 X88.98 Y80.84 E12.60704
G1 X88.706 Y80.523 E12.61541
G1 X88.496 Y80.157 E12.62383
G1 X88.349 Y80.441 E12.63021
G1 X88.09 Y80.77 E12.63856
G1 X87.773 Y81.044 E12.64693
G1 X87.41 Y81.253 E12.65528
G1 X87.2 Y81.325 E12.65971
G1 X87.2 Y85.229 E12.73762
G1 X87.617 Y85.081 E12.74645
G1 X88.13 Y85.02 E12.75676
G1 X93.986 Y85.02 E12.87363
G1 X94.403 Y85.06 E12.88199
G1 X94.805 Y85.178 E12.89035
G1 X95.177 Y85.371 E12.89871
G1 X95.506 Y85.63 E12.90707
G1 X95.78 Y85.947 E12.91543
G1 X95.989 Y86.31 E12.92379
G1 X96.125 Y86.707 E12.93216
G1 X96.186 Y87.22 E12.94247
G1 X96.186 Y106.22 E13.32164
G1 X96.146 Y106.637 E13.33
G1 X96.028 Y107.039 E13.33836
G1 X95.835 Y107.411 E13.34672
G1 X95.576 Y107.74 E13.35508
G1 X95.259 Y108.014 E13.36344
G1 X94.896 Y108.223 E13.3718
G1 X94.499 Y108.359 E13.38017
G1 X93.986 Y108.42 E13.39048
G1 X88.13 Y108.42 E13.50734
G1 X87.713 Y108.38 E13.5157
G1 X87.2 Y108.229 E13.52638
G1 X87.2 Y131.55 E13.99177
G1 X104.3 Y131.55 E14.33302
G1 X104.3 Y100.75 E14.94767
G1 X104.34 Y100.333 E14.95603
G1 X104.458 Y99.931 E14.96439
G1 X104.651 Y99.559 E14.97275
G1 X104.91 Y99.23 E14.98111
G1 X105.227 Y98.956 E14.98947
G1 X105.59 Y98.747 E14.99783
G1 X105.987 Y98.611 E15.0062
G1 X106.5 Y98.55 E15.01651
G1 X112.3 Y98.55 E15.13226
G1 X112.3 Y80.503 E15.4924
G1 X112.09 Y80.77 E15.49918
G1 X111.773 Y81.044 E15.50755
G1 X111.41 Y81.253 E15.5159
G1 X111.013 Y81.389 E15.52428
G1 X110.5 Y81.45 E15.53459
G1 X106.5 Y81.45 E15.61441
G1 X106.083 Y81.41 E15.62277
G1 X105.681 Y81.292 E15.63113
G1 X105.309 Y81.099 E15.6395
G1 X104.98 Y80.84 E15.64785
G1 X104.706 Y80.523 E15.65621
G1 X104.496 Y80.157 E15.66464
G1 X104.349 Y80.441 E15.67102
G1 X104.09 Y80.77 E15.67937
G1 X103.773 Y81.044 E15.68773
G1 X103.41 Y81.253 E15.69609
G1 X103.013 Y81.389 E15.70447
G1 X102.5 Y81.45 E15.71478
G1 X98.5 Y81.45 E15.7946
G1 X98.083 Y81.41 E15.80296
G1 X97.681 Y81.292 E15.81132
G1 X97.309 Y81.099 E15.81969
G1 X96.98 Y80.84 E15.82804
G1 X96.706 Y80.523 E15.8364
G1 X96.496 Y80.157 E15.84482
G1 X96.349 Y80.441 E15.85121
G1 X96.09 Y80.77 E15.85956
G1 X95.773 Y81.044 E15.86792
G1 X95.41 Y81.253 E15.87628
G1 X95.013 Y81.389 E15.88466
G1 X94.5 Y81.45 E15.89497
G1 X90.5 Y81.45 E15.97479
G1 X90.083 Y81.41 E15.98315
G1 X89.681 Y81.292 E15.99151
G1 X89.309 Y81.099 E15.99988
G0 F6000 X89.436 Y80.702
G1 F1200 X89.155 Y80.447 E16.00745
G1 X88.935 Y80.138 E16.01502
G1 X88.783 Y79.791 E16.02258
G1 X88.7 Y79.25 E16.0335
G1 X88.7 Y78.55 E16.04747
G1 X88.3 Y78.55 E16.05545
G1 X88.3 Y79.25 E16.06942
G1 X88.26 Y79.627 E16.07699
G1 X88.142 Y79.987 E16.08455
G1 X87.952 Y80.314 E16.09209
G1 X87.697 Y80.595 E16.09967
G1 X87.388 Y80.815 E16.10724
G1 X87.041 Y80.967 E16.1148
G1 X86.8 Y81.004 E16.11966
G1 X86.8 Y86.022 E16.2198
G1 X86.933 Y85.875 E16.22376
G1 X87.242 Y85.655 E16.23133
G1 X87.589 Y85.503 E16.23889
G1 X88.13 Y85.42 E16.24981
G1 X93.986 Y85.42 E16.36667
G1 X94.363 Y85.46 E16.37424
G1 X94.723 Y85.578 E16.3818
G1 X95.05 Y85.768 E16.38935
G1 X95.331 Y86.023 E16.39692
G1 X95.551 Y86.332 E16.40449
G1 X95.703 Y86.679 E16.41205
G1 X95.786 Y87.22 E16.42297
G1 X95.786 Y106.22 E16.80214
G1 X95.746 Y106.597 E16.8097
G1 X95.628 Y106.957 E16.81726
G1 X95.438 Y107.284 E16.82481
G1 X95.183 Y107.565 E16.83238
G1 X94.874 Y107.785 E16.83995
G1 X94.527 Y107.937 E16.84751
G1 X93.986 Y108.02 E16.85843
G1 X88.13 Y108.02 E16.9753
G1 X87.753 Y107.98 E16.98286
G1 X87.393 Y107.862 E16.99042
G1 X87.066 Y107.672 E16.99797
G1 X86.8 Y107.431 E17.00513
G1 X86.8 Y131.95 E17.49444
G1 X104.7 Y131.95 E17.85165
G1 X104.7 Y100.75 E18.47428
G1 X104.74 Y100.373 E18.48185
G1 X104.858 Y100.013 E18.48941
G1 X105.048 Y99.686 E18.49695
G1 X105.303 Y99.405 E18.50452
G1 X105.612 Y99.185 E18.51209
G1 X105.959 Y99.033 E18.51965
G1 X106.5 Y98.95 E18.53058
G1 X112.7 Y98.95 E18.6543
G1 X112.7 Y78.55 E19.06141
G1 X112.3 Y78.55 E19.06939
G1 X112.3 Y79.25 E19.08336
G1 X112.26 Y79.627 E19.09093
G1 X112.142 Y79.987 E19.09849
G1 X111.952 Y80.314 E19.10603
G1 X111.697 Y80.595 E19.11361
G1 X111.388 Y80.815 E19.12118
G1 X111.041 Y80.967 E19.12874
G1 X110.5 Y81.05 E19.13966
G1 X106.5 Y81.05 E19.21948
G1 X106.123 Y81.01 E19.22705
G1 X105.763 Y80.892 E19.23461
G1 X105.436 Y80.702 E19.24216
G1 X105.155 Y80.447 E19.24973
G1 X104.935 Y80.138 E19.2573
G1 X104.783 Y79.791 E19.26486
G1 X104.7 Y79.25 E19.27578
G1 X104.7 Y78.55 E19.28975
G1 X104.3 Y78.55 E19.29773
G1 X104.3 Y79.25 E19.3117
G1 X104.26 Y79.627 E19.31927
G1 X104.142 Y79.987 E19.32683
G1 X103.952 Y80.314 E19.33437
G1 X103.697 Y80.595 E19.34195
G1 X103.388 Y80.815 E19.34952
G1 X103.041 Y80.967 E19.35708
G1 X102.5 Y81.05 E19.368
G1 X98.5 Y81.05 E19.44782
G1 X98.123 Y81.01 E19.45539
G1 X97.763 Y80.892 E19.46295
G1 X97.436 Y80.702 E19.4705
G1 X97.155 Y80.447 E19.47807
G1 X96.935 Y80.138 E19.48564
G1 X96.783 Y79.791 E19.4932
G1 X96.7 Y79.25 E19.50412
G1 X96.7 Y78.55 E19.51809
G1 X96.3 Y78.55 E19.52607
G1 X96.3 Y79.25 E19.54004
G1 X96.26 Y79.627 E19.54761
G1 X96.142 Y79.987 E19.55517
G1 X95.952 Y80.314 E19.56272
G1 X95.697 Y80.595 E19.57029
G1 X95.388 Y80.815 E19.57786
G1 X95.041 Y80.967 E19.58542
G1 X94.5 Y81.05 E19.59634
G1 X90.5 Y81.05 E19.67616
G1 X90.123 Y81.01 E19.68373
G1 X89.763 Y80.892 E19.69129
G1 X89.436 Y80.702 E19.69884
G0 F6000 X89.579 Y80.305
G1 F1200 X89.356 Y80.057 E19.70549
G1 X89.197 Y79.763 E19.71216
G1 X89.1 Y79.389 E19.71987
G1 X89.1 Y78.15 E19.7446
G1 X87.9 Y78.15 E19.76855
G1 X87.9 Y79.25 E19.7905
G1 X87.86 Y79.582 E19.79717
G1 X87.743 Y79.894 E19.80382
G1 X87.555 Y80.171 E19.8105
G1 X87.307 Y80.394 E19.81716
G1 X87.013 Y80.553 E19.82383
G1 X86.689 Y80.637 E19.83051
G1 X86.4 Y80.65 E19.83628
G1 X86.4 Y132.35 E20.86801
G1 X105.1 Y132.35 E21.24119
G1 X105.1 Y100.75 E21.8718
G1 X105.14 Y100.418 E21.87847
G1 X105.257 Y100.106 E21.88512
G1 X105.445 Y99.829 E21.8918
G1 X105.693 Y99.606 E21.89846
G1 X105.987 Y99.447 E21.90513
G1 X106.361 Y99.35 E21.91284
G1 X113.1 Y99.35 E22.04733
G1 X113.1 Y78.15 E22.47039
G1 X111.9 Y78.15 E22.49434
G1 X111.9 Y79.25 E22.51629
G1 X111.86 Y79.582 E22.52297
G1 X111.743 Y79.894 E22.52962
G1 X111.555 Y80.171 E22.5363
G1 X111.307 Y80.394 E22.54295
G1 X111.013 Y80.553 E22.54962
G1 X110.639 Y80.65 E22.55733
G1 X106.5 Y80.65 E22.63993
G1 X106.168 Y80.61 E22.6466
G1 X105.856 Y80.493 E22.65325
G1 X105.579 Y80.305 E22.65994
G1 X105.356 Y80.057 E22.66659
G1 X105.197 Y79.763 E22.67326
G1 X105.1 Y79.389 E22.68097
G1 X105.1 Y78.15 E22.7057
G1 X103.9 Y78.15 E22.72964
G1 X103.9 Y79.25 E22.7516
G1 X103.86 Y79.582 E22.75827
G1 X103.743 Y79.894 E22.76492
G1 X103.555 Y80.171 E22.7716
G1 X103.307 Y80.394 E22.77826
G1 X103.013 Y80.553 E22.78493
G1 X102.639 Y80.65 E22.79264
G1 X98.5 Y80.65 E22.87523
